X: 15
T: The Mist Covered Mountain
R: jig
M: 6/8
L: 1/8
K: Gdor
|:DGG GA(c|d)GG G(FD)|~F3 FGA|cAG FDC|DGG GAc|
dGG P(GFA|1 d3) A(GF)|AGF G2F:|2 d)ef C'(AF)|AGF G2g||
g{a}fd) b,ga|{a}(gf)(d {e}cA)|G(FD)F2 (G|A)BA (GFD)|
[1 g{a}fd) b,ga|{a}(gf)(d {e}d)(cA)|G(FD) F2 (G|A)GG G2 g:|
[2 D)(CD) F2 (G|AGF) ABc|def C'(AF)|AGG G2F||

